X: 34523
T: Ril An Suaimhnis
R: reel
M: 4/4
K: Gmajor
|:A3B AGFE|DccA BGGB|A3B AGFE|DGGF G2FG|
A3B AGFE|DccA BGGB|ABcA dBcA|dBcA G3B:|
|:ABcA d3c|ABcA BG(3GGG|ABcA dBcA|G2AB c3B|
ABcA d3c|ABcA BGGB|ABcB ABcB|ABcA d3c:|

